icon-themes/sifr_svg/cmd/lc_deletetable.svg

<svg viewBox="0 0 24 24" xmlns="http://www.w3.org/2000/svg">
 <rect fill="#c3c4c2" height="16" ry="0" transform="matrix(0 -1 1 0 0 0)" width="3" x="-7" y="4"/>
 <rect fill="#ffffff" fill-opacity=".992308" height="6.970166" transform="matrix(0 -1 1 0 0 0)" width="7" x="-21" y="14.029834"/>
 <path d="M 4 8 L 4 20 L 11 20 L 11 14.21875 C 11 12.504233 12.420251 11 14.1875 11 L 20 11 L 20 8 L 4 8 z" fill="#ffffff" fill-opacity=".992308"/>
 <g fill="#555753">
  <path d="m 2 2 v 20 h 9.248047 C 11.089244 21.61991 11 21.207118 11 20.78125 V 20 h -1 v -1 v -3 h 1 v -1 h -1 v -3 h 1.904297 c .578128 -.608183 1.384204 -1 2.283203 -1 H 15 V 8 h 5 v 3 h 1 c .334323 0 .673531 .08664 1 .208984 V 2 Z M 4 4 H 9 V 6 V 7 H 4 Z m 6 0 h 4 V 7 H 10 V 6 Z m 5 0 h 5 V 7 H 15 Z M 4 8 h 5 v 3 H 4 Z m 6 0 h 4.048828 v 3 H 10 Z m -6 4 h 5 v 3 H 4 Z m 0 4 h 5 v 3 v 1 H 4 Z"/>
  <path d="m 14.1875 13 c -.662698 0 -1.187501 .548988 -1.187501 1.21875 v 6.5625 C 12.999999 21.451009 13.524802 22 14.1875 22 H 21 c .662699 0 .999999 -.548991 .999999 -1.21875 v -6.5625 C 21.999999 13.548988 21.662714 13 21 13 Z M 15 14.999997 h .999999 l 1.5 1.5 l 1.5 -1.5 h .999999 V 16 l -1.499996 1.5 l 1.499996 1.5 v .999999 h -.999999 l -1.5 -1.5 l -1.5 1.5 H 15 V 19 L 16.5 17.5 L 15 16 Z"/>
 </g>
</svg>

<svg xmlns="http://www.w3.org/2000/svg" viewBox="0 0 24 24">
 <path
     style="fill:#555753"
     d="M 2 2 L 2 22 L 11.248047 22 C 11.089244 21.61991 11 21.207118 11 20.78125 L 11 20 L 10 20 L 10 19 L 10 16 L 11 16 L 11 15 L 10 15 L 10 12 L 11.904297 12 C 12.482425 11.391817 13.288501 11 14.1875 11 L 15 11 L 15 8 L 20 8 L 20 11 L 21 11 C 21.334323 11 21.673531 11.08664 22 11.208984 L 22 2 L 2 2 z M 4 4 L 9 4 L 9 6 L 9 7 L 4 7 L 4 4 z M 10 4 L 14 4 L 14 7 L 10 7 L 10 6 L 10 4 z M 15 4 L 20 4 L 20 7 L 15 7 L 15 4 z M 4 8 L 9 8 L 9 11 L 4 11 L 4 8 z M 10 8 L 14.048828 8 L 14.048828 11 L 10 11 L 10 8 z M 4 12 L 9 12 L 9 15 L 4 15 L 4 12 z M 14.1875 13 C 13.524802 13 13 13.548988 13 14.21875 L 13 20.78125 C 13 21.451009 13.524802 22 14.1875 22 L 21 22 C 21.662699 22 22 21.451009 22 20.78125 L 22 14.21875 C 22 13.548988 21.662714 13 21 13 L 14.1875 13 z M 15 15 L 16 15 L 17.5 16.5 L 19 15 L 20 15 L 20 16 L 18.5 17.5 L 20 19 L 20 20 L 19 20 L 17.5 18.5 L 16 20 L 15 20 L 15 19 L 16.5 17.5 L 15 16 L 15 15 z M 4 16 L 9 16 L 9 19 L 9 20 L 4 20 L 4 16 z "
     />
 <path
     style="fill:#555753;opacity:0.35"
     d="M 4 4 L 4 7 L 9 7 L 9 6 L 9 4 L 4 4 z M 10 4 L 10 6 L 10 7 L 14 7 L 14 4 L 10 4 z M 15 4 L 15 7 L 20 7 L 20 4 L 15 4 z "
     />
 <path
     style="fill:#ffffff"
     d="M 4 8 L 4 11 L 9 11 L 9 8 L 4 8 z M 10 8 L 10 11 L 14.048828 11 L 14.048828 8 L 10 8 z M 15 8 L 15 11 L 20 11 L 20 8 L 15 8 z M 4 12 L 4 15 L 9 15 L 9 12 L 4 12 z M 10 12 L 10 15 L 11 15 L 11 14.21875 C 11 13.376407 11.345943 12.587381 11.904297 12 L 10 12 z M 15 15 L 15 16 L 16.5 17.5 L 15 19 L 15 20 L 16 20 L 17.5 18.5 L 19 20 L 20 20 L 20 19 L 18.5 17.5 L 20 16 L 20 15 L 19 15 L 17.5 16.5 L 16 15 L 15 15 z M 4 16 L 4 20 L 9 20 L 9 19 L 9 16 L 4 16 z M 10 16 L 10 19 L 10 20 L 11 20 L 11 16 L 10 16 z "
     />
 </svg>
